X: 1614
T: Spellan's Delight
R:hornpipe
N:"Collected by J. O'Neill"
B:O'Neill's 1614
Z:Transcribed by Michael Hogan
M:C|
L:1/8
K:A
E2 | (3AcA E>c d>BG>B | A>c (3efg a>ec>e | d>bc>a B>ge>g | a>ec>e f>dB>G |
(3AcA E>c d>BG>B | a>gb>g a>ec>e | d>ce>d f>ea>g | b>ge>g a2 :|
|:e2 | a>be>g a>ec>e | (3def (3edc d>BG>B | c>ea>c' d'>c'b>a | g>ba>f e2 f>g |
a>gb>g a>ec>e | d>bB>g a>ec>e | d>ce>d f>ea>g | b>ge>g a2 :||


